icons/bank-fill.svg

<svg viewBox="0 0 24 24" fill="currentColor" xmlns="http://www.w3.org/2000/svg"><path d="M2 20H22V22H2V20ZM4 12H6V19H4V12ZM9 12H11V19H9V12ZM13 12H15V19H13V12ZM18 12H20V19H18V12ZM2 7L12 2L22 7V11H2V7ZM12 8C12.5523 8 13 7.55228 13 7C13 6.44772 12.5523 6 12 6C11.4477 6 11 6.44772 11 7C11 7.55228 11.4477 8 12 8Z"/></svg>

<svg xmlns="http://www.w3.org/2000/svg" viewBox="0 0 24 24">
    <g>
        <path fill="none" d="M0 0h24v24H0z"/>
        <path d="M2 20h20v2H2v-2zm2-8h2v7H4v-7zm5 0h2v7H9v-7zm4 0h2v7h-2v-7zm5 0h2v7h-2v-7zM2 7l10-5 10 5v4H2V7zm10 1a1 1 0 1 0 0-2 1 1 0 0 0 0 2z"/>
    </g>
</svg>
